svg/color/amznon.svg

<svg width="40" height="40" viewBox="0 0 40 40" fill="none" xmlns="http://www.w3.org/2000/svg">
<g clip-path="url(#clip0_820_3883)">
<path d="M20 0C31.0457 0 40 8.9543 40 20C40 31.0457 31.0457 40 20 40C8.95431 40 7.90517e-06 31.0457 0 20C6.58765e-07 8.95431 8.95431 1.97595e-06 20 0Z" fill="#FFEBCC"/>
<path d="M26 6C30.4183 6 34 9.58172 34 14V26C34 30.4183 30.4183 34 26 34H14C9.58172 34 6 30.4183 6 26V14C6 9.58172 9.58172 6 14 6H26Z" fill="#FF9900"/>
<g clip-path="url(#clip1_820_3883)">
<path fill-rule="evenodd" clip-rule="evenodd" d="M27.695 27.6625C25.6269 29.1875 22.63 30 20.05 30C16.425 30 13.1738 28.6625 10.7094 26.4357C10.5219 26.2607 10.6894 26.0219 10.9219 26.1582C13.5813 27.7063 16.875 28.6375 20.2663 28.6375C22.7154 28.6263 25.138 28.1309 27.395 27.18C27.745 27.0313 28.0388 27.4088 27.695 27.6625ZM28.555 26.6788C28.2925 26.3413 26.8075 26.5194 26.1425 26.5975C25.9394 26.6225 25.9088 26.4457 26.0913 26.3188C27.2788 25.4875 29.2125 25.7269 29.4388 26.0063C29.665 26.2857 29.38 28.2313 28.27 29.1588C28.0994 29.3013 27.9369 29.2257 28.02 29.0363C28.27 28.4138 28.8288 27.0175 28.5638 26.6788" fill="white"/>
<path fill-rule="evenodd" clip-rule="evenodd" d="M21.5188 18.665C21.5188 19.7225 21.5456 20.6044 21.0113 21.5431C20.5738 22.3056 19.8863 22.7762 19.1331 22.7762C18.0913 22.7762 17.4806 21.9825 17.4806 20.8106C17.4806 18.4981 19.5531 18.0775 21.5194 18.0775L21.5188 18.665ZM24.2569 25.28C24.0775 25.4406 23.8181 25.4519 23.6156 25.345C22.7156 24.5969 22.5506 24.2494 22.0581 23.5356C20.5694 25.0544 19.5119 25.5087 17.5844 25.5087C15.2981 25.5087 13.5231 24.1 13.5231 21.2794C13.5231 19.0769 14.7138 17.5769 16.4169 16.8437C17.89 16.195 19.9481 16.0812 21.52 15.9062V15.5625C21.52 14.9175 21.57 14.1538 21.1888 13.5969C20.8606 13.0969 20.2263 12.8906 19.6656 12.8906C18.6313 12.8906 17.7113 13.4219 17.4863 14.5206C17.4406 14.7706 17.2613 15.0056 17.0131 15.0169L14.375 14.7219C14.1538 14.6719 13.9063 14.4931 13.9706 14.1594C14.58 10.9625 17.4656 10 20.0463 10C21.3669 10 23.0925 10.3512 24.1338 11.3512C25.4544 12.5844 25.3288 14.2294 25.3288 16.02V20.25C25.3288 21.5212 25.8556 22.0781 26.3519 22.7656C26.5238 23.0156 26.5619 23.3031 26.3406 23.4869C25.6401 24.0792 24.9468 24.6799 24.2606 25.2887L24.2569 25.2813" fill="white"/>
</g>
</g>
<defs>
<clipPath id="clip0_820_3883">
<rect width="40" height="40" fill="white"/>
</clipPath>
<clipPath id="clip1_820_3883">
<rect width="20" height="20" fill="white" transform="translate(10 10)"/>
</clipPath>
</defs>
</svg>

<svg xmlns="http://www.w3.org/2000/svg" width="40" height="40" fill="none" viewBox="0 0 40 40"><g clip-path="url(#amznon_svg-a)"><path fill="#FFEBCC" d="M20 0c11.046 0 20 8.954 20 20s-8.954 20-20 20S0 31.046 0 20 8.954 0 20 0"/><path fill="#F90" d="M26 6a8 8 0 0 1 8 8v12a8 8 0 0 1-8 8H14a8 8 0 0 1-8-8V14a8 8 0 0 1 8-8z"/><g fill="#fff" fill-rule="evenodd" clip-path="url(#amznon_svg-b)" clip-rule="evenodd"><path d="M27.695 27.663C25.627 29.187 22.63 30 20.05 30c-3.625 0-6.876-1.337-9.34-3.564-.188-.175-.02-.414.212-.278 2.66 1.548 5.953 2.48 9.344 2.48a18.6 18.6 0 0 0 7.129-1.458c.35-.149.644.229.3.483m.86-.984c-.262-.338-1.747-.16-2.413-.081-.203.024-.233-.152-.05-.28 1.187-.83 3.12-.591 3.347-.312.226.28-.059 2.225-1.169 3.153-.17.142-.333.067-.25-.123.25-.622.809-2.019.544-2.357m-7.045-8.014c0 1.058.027 1.94-.508 2.878-.437.763-1.125 1.233-1.878 1.233-1.042 0-1.652-.793-1.652-1.965 0-2.313 2.072-2.733 4.038-2.733zm2.738 6.615a.57.57 0 0 1-.641.065c-.9-.748-1.065-1.096-1.558-1.81-1.489 1.52-2.546 1.974-4.474 1.974-2.286 0-4.06-1.409-4.06-4.23 0-2.202 1.19-3.702 2.893-4.435 1.473-.649 3.531-.763 5.103-.938v-.344c0-.644.05-1.408-.331-1.965-.328-.5-.963-.706-1.523-.706-1.035 0-1.955.53-2.18 1.63-.045.25-.225.485-.473.496l-2.638-.295c-.221-.05-.469-.229-.404-.563C14.58 10.962 17.466 10 20.046 10c1.32 0 3.047.351 4.088 1.351 1.32 1.233 1.195 2.878 1.195 4.669v4.23c0 1.271.527 1.828 1.023 2.516.172.25.21.537-.011.72q-1.05.89-2.08 1.803z"/></g></g><defs><clipPath id="amznon_svg-a"><path fill="#fff" d="M0 0h40v40H0z"/></clipPath><clipPath id="amznon_svg-b"><path fill="#fff" d="M10 10h20v20H10z"/></clipPath></defs></svg>
